templates/toilet.svg

<svg width="165" height="289" viewBox="0 0 165 289" fill="none" xmlns="http://www.w3.org/2000/svg">
<path d="M163.329 1.67369L163.329 62.1649L161.07 64.5376L159.962 65.5255L157.518 66.5067L156.594 230.196L153.226 233.556L153.226 240.278L149.858 243.638L149.858 246.999L146.491 250.359L146.491 253.72L143.123 257.081L139.755 260.441L136.387 263.802L136.387 267.163L133.02 267.163L129.652 270.523L126.284 273.884L122.916 273.884L122.916 277.245L119.549 277.245L116.181 280.605L112.813 280.605L109.445 283.966L102.71 283.966L99.5114 286.424L69.1228 286.424L62.2968 283.966L56.6252 282.748L52.1936 280.605L49.653 279.204L45.458 277.245L42.286 275.528L38.7225 273.884L37.8132 272.377L35.3548 269.883L31.987 267.163L29.92 265.814L27.9467 263.582L25.2516 260.694L21.8838 257.081L21.8838 255.837L20.7113 253.605L18.5161 249.667L15.1483 243.366L10.1814 233.556L8.4128 215.077L8.41279 68.8861L6.75853 67.9507L5.04503 65.5255L1.6773 63.0936L1.6773 1.6737L82.5033 1.6737L163.329 1.67369Z" fill="white"/>
<path d="M-1.26326e-05 -5.82635e-06L165 -1.30387e-05L165 58.8108C164.998 62.791 162.996 65.7525 160.593 67.6718C159.867 68.2515 159.081 68.7384 158.291 69.1486L158.291 216.766C158.284 258.111 123.745 288.993 82.5164 289C41.229 289 6.75 254.706 6.74207 216.766L6.74207 69.3127C5.18729 68.5051 3.89096 67.4038 2.89415 66.1622C1.01436 63.8174 0.00202867 60.9328 -1.00619e-05 58.8108L-1.26326e-05 -5.82635e-06ZM82.5164 30.2259C79.7265 30.2259 77.6688 31.6267 76.6952 32.917C76.5054 33.1696 76.359 33.4082 76.2677 33.6062L77.4517 33.6062L77.4517 35.2799C77.4517 36.4137 78.0366 37.7014 79.0632 38.7259C80.0887 39.7463 81.3826 40.334 82.5164 40.334C83.6457 40.3295 84.9159 39.7403 85.9368 38.7259C86.9634 37.7014 87.5483 36.4137 87.5483 35.2799C87.5483 34.1461 86.9634 32.8583 85.9368 31.834C84.9159 30.8196 83.6457 30.2303 82.5164 30.2259ZM82.5164 285.653C122.049 285.646 154.79 256.12 154.87 216.898L141.584 94.0907L23.3835 94.0907L10.0967 216.898C10.1844 252.83 43.0355 285.653 82.5164 285.653ZM144.642 90.7432L144.807 92.2201L154.903 185.556L154.903 70.7567C128.788 73.8989 108.817 73.9401 82.5164 73.9401C56.3238 73.9401 33.1721 73.9037 10.0967 70.7896L10.0967 185.556L20.1933 92.2201L20.3578 90.7432L144.642 90.7432ZM82.5164 70.5598C107.815 70.5598 127.08 70.476 151.549 67.7046L152.387 67.7046L153.226 67.2123C154.467 67.2123 156.631 66.5292 158.488 65.0463C160.289 63.6073 161.643 61.542 161.645 58.8108L161.645 3.34748L3.35458 3.34748L3.35458 58.8108C3.35689 60.0498 4.04171 62.2114 5.5252 64.0618C6.9672 65.8571 9.03905 67.2102 11.774 67.2124L12.8099 67.8359L13.4513 67.8359C35.3049 70.5389 57.3904 70.5598 82.5164 70.5598ZM82.5164 26.8784C84.743 26.8827 86.8414 27.9779 88.3376 29.471C89.8335 30.9666 90.9358 33.0564 90.9358 35.2799C90.9358 37.5034 89.8335 39.5932 88.3376 41.0888C86.8414 42.5819 84.743 43.6772 82.5164 43.6815C80.2881 43.6815 78.194 42.5815 76.6952 41.0888C75.4886 39.8847 74.5524 38.2941 74.2286 36.5598C74.0617 36.4712 73.8878 36.3933 73.7353 36.2645C73.112 35.7368 72.837 35.0247 72.7815 34.361C72.6827 33.1428 73.2597 31.8988 73.9984 30.915C75.5529 28.8468 78.5762 26.8784 82.5164 26.8784Z" fill="#1D2132"/>
</svg>

<svg xmlns="http://www.w3.org/2000/svg" width="165" height="289" fill="none" viewBox="0 0 165 289"><path fill="#fff" d="M163.329 1.674v60.49l-2.259 2.374-1.108.987-2.444.982-.924 163.689-3.368 3.36v6.722l-3.368 3.36v3.361l-3.367 3.36v3.361l-3.368 3.361-3.368 3.36-3.368 3.361v3.361h-3.367l-3.368 3.36-3.368 3.361h-3.368v3.361h-3.367l-3.368 3.36h-3.368l-3.368 3.361h-6.735l-3.199 2.458H69.123l-6.826-2.458-5.672-1.218-4.431-2.143-2.541-1.401-4.195-1.959-3.172-1.717-3.564-1.644-.909-1.507-2.458-2.494-3.368-2.72-2.067-1.349-1.973-2.232-2.695-2.888-3.368-3.613v-1.244l-1.173-2.232-2.195-3.938-3.368-6.301-4.967-9.81-1.768-18.479V68.887l-1.654-.936-1.714-2.425-3.368-2.432V1.674H163.33"/><path fill="#1d2132" d="M0 0h165v58.81c-.002 3.981-2.004 6.942-4.407 8.862a14 14 0 0 1-2.302 1.477v147.617c-.007 41.345-34.546 72.227-75.775 72.234-41.287 0-75.766-34.294-75.774-72.234V69.313a12.1 12.1 0 0 1-3.848-3.15C1.014 63.816.002 60.932 0 58.81zm82.516 30.226c-2.79 0-4.847 1.4-5.82 2.691a4 4 0 0 0-.428.69h1.184v1.673c0 1.134.585 2.421 1.611 3.446 1.026 1.02 2.32 1.608 3.453 1.608 1.13-.005 2.4-.594 3.42-1.608 1.027-1.025 1.612-2.312 1.612-3.446s-.585-2.422-1.611-3.446c-1.021-1.014-2.291-1.604-3.42-1.608m0 255.427c39.533-.007 72.274-29.533 72.354-68.755L141.584 94.091h-118.2L10.096 216.898c.087 35.932 32.939 68.755 72.42 68.755m62.126-194.91.165 1.477 10.096 93.336v-114.8c-26.115 3.143-46.086 3.184-72.387 3.184-26.192 0-49.344-.036-72.42-3.15v114.766L20.194 92.22l.165-1.477zM82.516 70.56c25.299 0 44.564-.084 69.033-2.855h.838l.839-.493c1.241 0 3.405-.683 5.262-2.166 1.801-1.439 3.155-3.504 3.157-6.235V3.347H3.355v55.464c.002 1.239.687 3.4 2.17 5.25 1.442 1.796 3.514 3.15 6.249 3.151l1.036.624h.641c21.854 2.703 43.94 2.724 69.065 2.724m0-43.682c2.227.005 4.325 1.1 5.822 2.593 1.496 1.496 2.598 3.585 2.598 5.809 0 2.223-1.103 4.313-2.598 5.809-1.497 1.493-3.595 2.588-5.822 2.593-2.228 0-4.322-1.1-5.82-2.593-1.207-1.204-2.144-2.795-2.467-4.53-.167-.088-.341-.166-.494-.294-.623-.528-.898-1.24-.954-1.904-.098-1.218.479-2.462 1.217-3.446 1.555-2.068 4.578-4.037 8.518-4.037"/></svg>
